assets/images/number_1.svg

<svg width="181" height="134" viewBox="0 0 181 134" fill="none" xmlns="http://www.w3.org/2000/svg">
<mask id="path-1-outside-1_0_538" maskUnits="userSpaceOnUse" x="-0.74707" y="-0.408203" width="182" height="135" fill="black">
<rect fill="white" x="-0.74707" y="-0.408203" width="182" height="135"/>
<path d="M56.5749 132.841C46.6569 132.841 38.1639 131.245 31.0959 128.053C24.0279 124.747 18.2709 120.301 13.8249 114.715C9.49293 109.129 6.24393 102.688 4.07793 95.3918C2.02593 87.9818 0.99993 80.1728 0.99993 71.9648V62.2178C0.99993 50.8178 2.99493 40.5008 6.98493 31.2668C10.9749 22.0328 17.0739 14.6798 25.2819 9.20779C33.4899 3.73579 43.9209 0.999791 56.5749 0.999791C69.2289 0.999791 79.6029 3.73579 87.6969 9.20779C95.9049 14.6798 102.004 22.0328 105.994 31.2668C109.984 40.5008 111.979 50.8178 111.979 62.2178V71.9648C111.979 80.1728 110.896 87.9818 108.73 95.3918C106.678 102.688 103.429 109.129 98.9829 114.715C94.6509 120.301 88.9509 124.747 81.8829 128.053C74.9289 131.245 66.4929 132.841 56.5749 132.841ZM56.5749 107.02C65.8089 107.02 72.6489 103.828 77.0949 97.4438C81.6549 90.9458 83.9349 80.9138 83.9349 67.3478C83.9349 52.9838 81.5979 42.6668 76.9239 36.3968C72.3639 30.0128 65.5809 26.8208 56.5749 26.8208C47.3409 26.8208 40.4439 30.0128 35.8839 36.3968C31.3239 42.6668 29.0439 52.8698 29.0439 67.0058C29.0439 80.6858 31.2669 90.7748 35.7129 97.2728C40.2729 103.771 47.2269 107.02 56.5749 107.02ZM151.77 129.592V23.2298L159.294 29.0438H127.317V4.76179H179.643V129.592H151.77Z"/>
</mask>
<path d="M56.5749 132.841C46.6569 132.841 38.1639 131.245 31.0959 128.053C24.0279 124.747 18.2709 120.301 13.8249 114.715C9.49293 109.129 6.24393 102.688 4.07793 95.3918C2.02593 87.9818 0.99993 80.1728 0.99993 71.9648V62.2178C0.99993 50.8178 2.99493 40.5008 6.98493 31.2668C10.9749 22.0328 17.0739 14.6798 25.2819 9.20779C33.4899 3.73579 43.9209 0.999791 56.5749 0.999791C69.2289 0.999791 79.6029 3.73579 87.6969 9.20779C95.9049 14.6798 102.004 22.0328 105.994 31.2668C109.984 40.5008 111.979 50.8178 111.979 62.2178V71.9648C111.979 80.1728 110.896 87.9818 108.73 95.3918C106.678 102.688 103.429 109.129 98.9829 114.715C94.6509 120.301 88.9509 124.747 81.8829 128.053C74.9289 131.245 66.4929 132.841 56.5749 132.841ZM56.5749 107.02C65.8089 107.02 72.6489 103.828 77.0949 97.4438C81.6549 90.9458 83.9349 80.9138 83.9349 67.3478C83.9349 52.9838 81.5979 42.6668 76.9239 36.3968C72.3639 30.0128 65.5809 26.8208 56.5749 26.8208C47.3409 26.8208 40.4439 30.0128 35.8839 36.3968C31.3239 42.6668 29.0439 52.8698 29.0439 67.0058C29.0439 80.6858 31.2669 90.7748 35.7129 97.2728C40.2729 103.771 47.2269 107.02 56.5749 107.02ZM151.77 129.592V23.2298L159.294 29.0438H127.317V4.76179H179.643V129.592H151.77Z" fill="white" fill-opacity="0.21"/>
<path d="M31.0959 128.053L30.6722 128.959L30.6843 128.964L31.0959 128.053ZM13.8249 114.715L13.0346 115.328L13.0425 115.338L13.8249 114.715ZM4.07793 95.3918L3.1142 95.6587L3.11666 95.6676L3.11928 95.6764L4.07793 95.3918ZM6.98493 31.2668L6.06696 30.8701L6.98493 31.2668ZM25.2819 9.20779L24.7272 8.37574L24.7272 8.37574L25.2819 9.20779ZM87.6969 9.20779L87.1368 10.0362L87.1422 10.0398L87.6969 9.20779ZM105.994 31.2668L105.076 31.6634V31.6634L105.994 31.2668ZM108.73 95.3918L107.77 95.1112L107.767 95.121L108.73 95.3918ZM98.9829 114.715L98.2005 114.092L98.1927 114.102L98.9829 114.715ZM81.8829 128.053L82.3001 128.962L82.3066 128.959L81.8829 128.053ZM77.0949 97.4438L76.2764 96.8694L76.2743 96.8723L77.0949 97.4438ZM76.9239 36.3968L76.1102 36.978L76.1161 36.9863L76.1222 36.9945L76.9239 36.3968ZM35.8839 36.3968L36.6927 36.985L36.6977 36.978L35.8839 36.3968ZM35.7129 97.2728L34.8876 97.8375L34.8944 97.8472L35.7129 97.2728ZM56.5749 132.841V131.841C46.7607 131.841 38.4154 130.261 31.5075 127.141L31.0959 128.053L30.6843 128.964C37.9124 132.228 46.5531 133.841 56.5749 133.841V132.841ZM31.0959 128.053L31.5196 127.147C24.5782 123.9 18.9485 119.546 14.6074 114.092L13.8249 114.715L13.0425 115.338C17.5933 121.055 23.4776 125.593 30.6722 128.959L31.0959 128.053ZM13.8249 114.715L14.6151 114.102C10.3648 108.621 7.17 102.293 5.03658 95.1072L4.07793 95.3918L3.11928 95.6764C5.31786 103.082 8.62105 109.636 13.0347 115.328L13.8249 114.715ZM4.07793 95.3918L5.04166 95.1249C3.0153 87.8075 1.99993 80.0887 1.99993 71.9648H0.99993H-6.96182e-05C-6.96182e-05 80.2569 1.03656 88.1561 3.1142 95.6587L4.07793 95.3918ZM0.99993 71.9648H1.99993V62.2178H0.99993H-6.96182e-05V71.9648H0.99993ZM0.99993 62.2178H1.99993C1.99993 50.9361 3.97377 40.7566 7.9029 31.6634L6.98493 31.2668L6.06696 30.8701C2.01609 40.245 -6.96182e-05 50.6995 -6.96182e-05 62.2178H0.99993ZM6.98493 31.2668L7.9029 31.6634C11.818 22.6029 17.7925 15.4026 25.8366 10.0398L25.2819 9.20779L24.7272 8.37574C16.3553 13.957 10.1319 21.4627 6.06696 30.8701L6.98493 31.2668ZM25.2819 9.20779L25.8366 10.0398C33.8396 4.70452 44.0629 1.99979 56.5749 1.99979V0.999791V-0.000208855C43.7789 -0.000208855 33.1403 2.76706 24.7272 8.37574L25.2819 9.20779ZM56.5749 0.999791V1.99979C69.0877 1.99979 79.2508 4.70481 87.1369 10.0362L87.6969 9.20779L88.257 8.37934C79.9551 2.76677 69.3701 -0.000208855 56.5749 -0.000208855V0.999791ZM87.6969 9.20779L87.1422 10.0398C95.1863 15.4026 101.161 22.6029 105.076 31.6634L105.994 31.2668L106.912 30.8701C102.847 21.4627 96.6235 13.957 88.2516 8.37574L87.6969 9.20779ZM105.994 31.2668L105.076 31.6634C109.005 40.7566 110.979 50.9361 110.979 62.2178H111.979H112.979C112.979 50.6995 110.963 40.245 106.912 30.8701L105.994 31.2668ZM111.979 62.2178H110.979V71.9648H111.979H112.979V62.2178H111.979ZM111.979 71.9648H110.979C110.979 80.0838 109.908 87.798 107.77 95.1112L108.73 95.3918L109.69 95.6724C111.884 88.1656 112.979 80.2617 112.979 71.9648H111.979ZM108.73 95.3918L107.767 95.121C105.749 102.297 102.559 108.617 98.2005 114.092L98.9829 114.715L99.7654 115.338C104.299 109.641 107.607 103.079 109.693 95.6625L108.73 95.3918ZM98.9829 114.715L98.1927 114.102C93.9677 119.55 88.3987 123.901 81.4593 127.147L81.8829 128.053L82.3066 128.959C89.5031 125.592 95.3342 121.052 99.7732 115.328L98.9829 114.715ZM81.8829 128.053L81.4658 127.144C74.6753 130.261 66.3899 131.841 56.5749 131.841V132.841V133.841C66.596 133.841 75.1825 132.229 82.3001 128.962L81.8829 128.053ZM56.5749 107.02V108.02C66.0662 108.02 73.2459 104.72 77.9155 98.0153L77.0949 97.4438L76.2743 96.8723C72.052 102.935 65.5517 106.02 56.5749 106.02V107.02ZM77.0949 97.4438L77.9135 98.0182C82.6491 91.27 84.9349 80.9891 84.9349 67.3478H83.9349H82.9349C82.9349 80.8385 80.6608 90.6216 76.2764 96.8694L77.0949 97.4438ZM83.9349 67.3478H84.9349C84.9349 52.9253 82.5981 42.3353 77.7257 35.7991L76.9239 36.3968L76.1222 36.9945C80.5977 42.9982 82.9349 53.0422 82.9349 67.3478H83.9349ZM76.9239 36.3968L77.7377 35.8156C72.9601 29.127 65.8489 25.8208 56.5749 25.8208V26.8208V27.8208C65.3129 27.8208 71.7677 30.8986 76.1102 36.978L76.9239 36.3968ZM56.5749 26.8208V25.8208C47.0832 25.8208 39.8529 29.1198 35.0702 35.8156L35.8839 36.3968L36.6977 36.978C41.035 30.9058 47.5986 27.8208 56.5749 27.8208V26.8208ZM35.8839 36.3968L35.0752 35.8086C30.3244 42.341 28.0439 52.8101 28.0439 67.0058H29.0439H30.0439C30.0439 52.9295 32.3235 42.9926 36.6927 36.985L35.8839 36.3968ZM29.0439 67.0058H28.0439C28.0439 80.7558 30.2712 91.0903 34.8876 97.8375L35.7129 97.2728L36.5382 96.7081C32.2627 90.4592 30.0439 80.6158 30.0439 67.0058H29.0439ZM35.7129 97.2728L34.8944 97.8472C39.6767 104.662 46.9673 108.02 56.5749 108.02V107.02V106.02C47.4866 106.02 40.8692 102.88 36.5315 96.6984L35.7129 97.2728ZM151.77 129.592H150.77V130.592H151.77V129.592ZM151.77 23.2298L152.381 22.4385L150.77 21.1933V23.2298H151.77ZM159.294 29.0438V30.0438H162.223L159.905 28.2525L159.294 29.0438ZM127.317 29.0438H126.317V30.0438H127.317V29.0438ZM127.317 4.76179V3.76179H126.317V4.76179H127.317ZM179.643 4.76179H180.643V3.76179H179.643V4.76179ZM179.643 129.592V130.592H180.643V129.592H179.643ZM151.77 129.592H152.77V23.2298H151.77H150.77V129.592H151.77ZM151.77 23.2298L151.158 24.0211L158.682 29.8351L159.294 29.0438L159.905 28.2525L152.381 22.4385L151.77 23.2298ZM159.294 29.0438V28.0438H127.317V29.0438V30.0438H159.294V29.0438ZM127.317 29.0438H128.317V4.76179H127.317H126.317V29.0438H127.317ZM127.317 4.76179V5.76179H179.643V4.76179V3.76179H127.317V4.76179ZM179.643 4.76179H178.643V129.592H179.643H180.643V4.76179H179.643ZM179.643 129.592V128.592H151.77V129.592V130.592H179.643V129.592Z" fill="url(#paint0_linear_0_538)" mask="url(#path-1-outside-1_0_538)"/>
<defs>
<linearGradient id="paint0_linear_0_538" x1="21.4875" y1="129.592" x2="80.8973" y2="-14.5343" gradientUnits="userSpaceOnUse">
<stop stop-color="#585858"/>
<stop offset="1" stop-color="#869F9B"/>
</linearGradient>
</defs>
</svg>

<svg xmlns="http://www.w3.org/2000/svg" width="181" height="134" fill="none" viewBox="0 0 181 134"><mask id="b" width="182" height="135" x="-.747" y="-.408" fill="#000" maskUnits="userSpaceOnUse"><path fill="#fff" d="M-.747-.408h182v135h-182z"/><path d="M56.575 132.841q-14.877 0-25.48-4.788-10.6-4.959-17.27-13.338-6.498-8.379-9.747-19.323Q1 84.276 1 71.965v-9.747q0-17.1 5.985-30.951t18.297-22.06Q37.594 1 56.575 1t31.122 8.208q12.312 8.208 18.297 22.059 5.985 13.85 5.985 30.95v9.748q0 12.312-3.249 23.427-3.078 10.944-9.747 19.323-6.498 8.379-17.1 13.338-10.431 4.788-25.308 4.788m0-25.821q13.851 0 20.52-9.576 6.84-9.747 6.84-30.096 0-21.546-7.011-30.951-6.84-9.576-20.35-9.576-13.85 0-20.69 9.576-6.84 9.405-6.84 30.609 0 20.52 6.669 30.267 6.84 9.747 20.862 9.747m95.195 22.572V23.23l7.524 5.814h-31.977V4.762h52.326v124.83z"/></mask><path fill="#fff" fill-opacity=".21" d="M56.575 132.841q-14.877 0-25.48-4.788-10.6-4.959-17.27-13.338-6.498-8.379-9.747-19.323Q1 84.276 1 71.965v-9.747q0-17.1 5.985-30.951t18.297-22.06Q37.594 1 56.575 1t31.122 8.208q12.312 8.208 18.297 22.059 5.985 13.85 5.985 30.95v9.748q0 12.312-3.249 23.427-3.078 10.944-9.747 19.323-6.498 8.379-17.1 13.338-10.431 4.788-25.308 4.788m0-25.821q13.851 0 20.52-9.576 6.84-9.747 6.84-30.096 0-21.546-7.011-30.951-6.84-9.576-20.35-9.576-13.85 0-20.69 9.576-6.84 9.405-6.84 30.609 0 20.52 6.669 30.267 6.84 9.747 20.862 9.747m95.195 22.572V23.23l7.524 5.814h-31.977V4.762h52.326v124.83z"/><path fill="url(#a)" d="m31.096 128.053-.424.906.012.005zm-17.271-13.338-.79.613.008.01zM4.078 95.392l-.964.267.003.009.002.008zm2.907-64.125-.918-.397zm18.297-22.06-.555-.831zm62.415 0-.56.83.005.003zm18.297 22.06-.918.396zm2.736 64.125-.96-.28-.003.009zm-9.747 19.323-.782-.623-.008.01zm-17.1 13.338.417.909.007-.003zm-4.788-30.61-.819-.574-.002.003zm-.171-61.046-.814.581.006.008.006.009zm-41.04 0 .809.588.005-.007zm-.171 60.876-.825.565.006.01zm20.862 35.568v-1c-9.814 0-18.16-1.58-25.068-4.7l-.411.912-.412.911c7.228 3.264 15.87 4.877 25.89 4.877zm-25.48-4.788.425-.906c-6.942-3.247-12.571-7.601-16.913-13.055l-.782.623-.782.623c4.55 5.717 10.435 10.255 17.63 13.621zm-17.27-13.338.79-.613c-4.25-5.481-7.445-11.809-9.578-18.995l-.96.285-.958.284c2.199 7.406 5.502 13.96 9.916 19.652zM4.078 95.392l.964-.267Q2 84.15 2 71.965H0q0 12.439 3.114 23.694zM1 71.965h1v-9.747H0v9.747zm0-9.747h1c0-11.282 1.974-21.461 5.903-30.555l-.918-.396-.918-.397C2.017 40.245 0 50.7 0 62.218zm5.985-30.951.918.396c3.915-9.06 9.89-16.26 17.934-21.623l-.555-.832-.555-.832c-8.372 5.581-14.595 13.087-18.66 22.494zm18.297-22.06.555.833C33.84 4.705 44.063 2 56.575 2V0C43.779 0 33.14 2.767 24.727 8.376zM56.575 1v1c12.513 0 22.676 2.705 30.562 8.036l.56-.828.56-.829C79.955 2.767 69.37 0 56.575 0zm31.122 8.208-.555.832c8.044 5.363 14.019 12.563 17.934 21.623l.918-.396.918-.397c-4.065-9.407-10.288-16.913-18.66-22.494zm18.297 22.059-.918.396c3.929 9.094 5.903 19.273 5.903 30.555h2c0-11.519-2.016-21.973-6.067-31.348zm5.985 30.95h-1v9.748h2v-9.747zm0 9.748h-1q-.001 12.178-3.209 23.146l.96.28.96.281q3.29-11.26 3.289-23.707zm-3.249 23.427-.963-.271c-2.018 7.176-5.208 13.496-9.566 18.971l.782.623.782.623c4.534-5.697 7.842-12.259 9.928-19.675zm-9.747 19.323-.79-.613c-4.225 5.448-9.794 9.799-16.734 13.045l.424.906.424.906c7.196-3.367 13.027-7.907 17.466-13.631zm-17.1 13.338-.417-.909c-6.79 3.117-15.076 4.697-24.891 4.697v2c10.021 0 18.608-1.612 25.725-4.879zM56.575 107.02v1c9.491 0 16.67-3.3 21.34-10.005l-.82-.571-.82-.572c-4.223 6.063-10.723 9.148-19.7 9.148zm20.52-9.576.819.574c4.735-6.748 7.02-17.029 7.02-30.67h-2c0 13.49-2.273 23.274-6.658 29.521zm6.84-30.096h1c0-14.423-2.337-25.013-7.21-31.549l-.801.598-.802.598c4.476 6.003 6.813 16.047 6.813 30.353zm-7.011-30.951.814-.581c-4.778-6.689-11.89-9.995-21.163-9.995v2c8.738 0 15.193 3.078 19.535 9.157zm-20.35-9.576v-1c-9.49 0-16.721 3.299-21.504 9.995l.814.58.814.582c4.337-6.072 10.9-9.157 19.877-9.157zm-20.69 9.576-.809-.588c-4.75 6.532-7.031 17.001-7.031 31.197h2c0-14.077 2.28-24.013 6.649-30.021zm-6.84 30.609h-1c0 13.75 2.227 24.084 6.844 30.832l.825-.565.825-.565c-4.275-6.249-6.494-16.092-6.494-29.702zm6.669 30.267-.819.574c4.783 6.815 12.073 10.173 21.68 10.173v-2c-9.087 0-15.705-3.14-20.042-9.322zm116.057 32.319h-1v1h1zm0-106.362.611-.791-1.611-1.246v2.037zm7.524 5.814v1h2.929l-2.318-1.791zm-31.977 0h-1v1h1zm0-24.282v-1h-1v1zm52.326 0h1v-1h-1zm0 124.83v1h1v-1zm-27.873 0h1V23.23h-2v106.362zm0-106.362-.612.791 7.524 5.814.612-.791.611-.791-7.524-5.814zm7.524 5.814v-1h-31.977v2h31.977zm-31.977 0h1V4.762h-2v24.282zm0-24.282v1h52.326v-2h-52.326zm52.326 0h-1v124.83h2V4.762zm0 124.83v-1H151.77v2h27.873z" mask="url(#b)"/><defs><linearGradient id="a" x1="21.488" x2="80.897" y1="129.592" y2="-14.534" gradientUnits="userSpaceOnUse"><stop stop-color="#585858"/><stop offset="1" stop-color="#869f9b"/></linearGradient></defs></svg>
